img/svg/mail.svg

<svg xmlns="http://www.w3.org/2000/svg" preserveAspectRatio="xMidYMid" width="19" height="19" viewBox="0 0 19 19"><defs><style>.cls-2 { fill: #ff6600; opacity: 0.5; }</style></defs><path d="M19 12.734v-5.396c0-1.99-.73-3.728-2.168-5.169-1.441-1.439-3.18-2.169-5.169-2.169h-4.326c-1.99 0-3.729.728-5.166 2.164-1.44 1.436-2.171 3.177-2.171 5.174v4.325c0 1.989.731 3.729 2.171 5.168 1.438 1.44 3.18 2.169 5.177 2.169h6.74c.334 0 .607-.272.607-.606v-.546c0-.334-.273-.606-.607-.606h-6.74c-1.545 0-2.877-.559-3.96-1.663-1.081-1.102-1.63-2.419-1.63-3.916v-4.325c0-1.545.56-2.876 1.663-3.956 1.102-1.078 2.419-1.624 3.917-1.624h4.325c1.538 0 2.867.559 3.95 1.662 1.081 1.103 1.629 2.421 1.629 3.917v4.325c0 .821-.453 1.274-1.274 1.274h-2.162c-.822 0-1.274-.453-1.274-1.274v-6.75c0-.334-.272-.606-.606-.606h-3.498c-1.111 0-2.086.407-2.898 1.209-.812.802-1.224 1.783-1.224 2.913v2.143c0 1.144.412 2.128 1.224 2.923.811.796 1.657 1.201 2.515 1.201.728 0 1.287-.167 1.66-.496.219-.192.388-.445.502-.749.085-.229.166-.446.366-.446.206 0 .281.22.36.453.285.833.874 1.238 1.801 1.238h4.306c.547 0 1.001-.191 1.386-.582.387-.393.574-.844.574-1.379zm-8.226-2.163c0 .338-.065.657-.191.946-.199.454-.769 1.027-1.219 1.226-.286.128-.601.193-.936.193-.342 0-.663-.065-.953-.193-.451-.2-1.021-.772-1.22-1.225-.127-.29-.192-.608-.192-.946v-2.143c0-.646.235-1.207.698-1.669.461-.461 1.021-.695 1.667-.695h1.335c.557 0 1.011.453 1.011 1.01v3.496z" id="path-1" class="cls-2" fill-rule="evenodd"/></svg>

<svg xmlns="http://www.w3.org/2000/svg" xmlns:xlink="http://www.w3.org/1999/xlink" preserveAspectRatio="xMidYMid" width="19" height="19" viewBox="0 0 19 19">
  <defs>
    <style>

      .cls-2 {
        fill: #ff6600;
        opacity: 0.5;
      }
    </style>
  </defs>
  <path d="M19.000,12.734 C19.000,12.734 19.000,7.338 19.000,7.338 C19.000,5.348 18.270,3.610 16.832,2.169 C15.391,0.730 13.652,0.000 11.663,0.000 C11.663,0.000 7.337,0.000 7.337,0.000 C5.347,0.000 3.608,0.728 2.171,2.164 C0.731,3.600 0.000,5.341 0.000,7.338 C0.000,7.338 0.000,11.663 0.000,11.663 C0.000,13.652 0.731,15.392 2.171,16.831 C3.609,18.271 5.351,19.000 7.348,19.000 C7.348,19.000 14.088,19.000 14.088,19.000 C14.422,19.000 14.695,18.728 14.695,18.394 C14.695,18.394 14.695,17.848 14.695,17.848 C14.695,17.514 14.422,17.242 14.088,17.242 C14.088,17.242 7.348,17.242 7.348,17.242 C5.803,17.242 4.471,16.683 3.388,15.579 C2.307,14.477 1.758,13.160 1.758,11.663 C1.758,11.663 1.758,7.338 1.758,7.338 C1.758,5.793 2.318,4.462 3.421,3.382 C4.523,2.304 5.840,1.758 7.338,1.758 C7.338,1.758 11.663,1.758 11.663,1.758 C13.201,1.758 14.530,2.317 15.613,3.420 C16.694,4.523 17.242,5.841 17.242,7.337 C17.242,7.337 17.242,11.662 17.242,11.662 C17.242,12.483 16.789,12.936 15.968,12.936 C15.968,12.936 13.806,12.936 13.806,12.936 C12.984,12.936 12.532,12.483 12.532,11.662 C12.532,11.662 12.532,4.912 12.532,4.912 C12.532,4.578 12.260,4.306 11.926,4.306 C11.926,4.306 8.428,4.306 8.428,4.306 C7.317,4.306 6.342,4.713 5.530,5.515 C4.718,6.317 4.306,7.298 4.306,8.428 C4.306,8.428 4.306,10.571 4.306,10.571 C4.306,11.715 4.718,12.699 5.530,13.494 C6.341,14.290 7.187,14.695 8.045,14.695 C8.773,14.695 9.332,14.528 9.705,14.199 C9.924,14.007 10.093,13.754 10.207,13.450 C10.292,13.221 10.373,13.004 10.573,13.004 C10.779,13.004 10.854,13.224 10.933,13.457 C11.218,14.290 11.807,14.695 12.734,14.695 C12.734,14.695 17.040,14.695 17.040,14.695 C17.587,14.695 18.041,14.504 18.426,14.113 C18.813,13.720 19.000,13.269 19.000,12.734 ZM10.774,10.571 C10.774,10.909 10.709,11.228 10.583,11.517 C10.384,11.971 9.814,12.544 9.364,12.743 C9.078,12.871 8.763,12.936 8.428,12.936 C8.086,12.936 7.765,12.871 7.475,12.743 C7.024,12.543 6.454,11.971 6.255,11.518 C6.128,11.228 6.063,10.910 6.063,10.572 C6.063,10.572 6.063,8.429 6.063,8.429 C6.063,7.783 6.298,7.222 6.761,6.760 C7.222,6.299 7.782,6.065 8.428,6.065 C8.428,6.065 9.763,6.065 9.763,6.065 C10.320,6.065 10.774,6.518 10.774,7.075 C10.774,7.075 10.774,10.571 10.774,10.571 Z" id="path-1" class="cls-2" fill-rule="evenodd"/>
</svg>
